X:1
T: Planting the May
N:
C:
S:Play  4  times
A:
O:
R:
M:4/4
K:Am
I:speed 200
%W: A1
% voice 1 (1 lines, 14 notes)
K:Am
M:4/4
L:1/16
E4 |A4 B4 c4 d4 |e8 c4 e4 |d4 c4 B6 A2 |A12 E4 |
%W: A2
% voice 1 (1 lines, 13 notes)
A4 B4 c4 d4 |e8 c4 e4 |d4 c4 B6 A2 |A12 c4 |
%W: B1
% voice 1 (1 lines, 28 notes)
G4 G4 A4 A4 |G4 E8 G4 |A2 B2 c2 d2 e4 d4 |c12 B4 |A4 A4 B4 B4 |^G4 E8 E4 |^F2 ^G2 A8 G4 |A12 c4 |
%W: B2
% voice 1 (1 lines, 27 notes)
G4 G4 A4 A4 |G4 E8 G4 |A2 B2 c2 d2 e4 d4 |c12 B4 |A4 A4 B4 B4 |^G4 E8 E4 |^F2 ^G2 A8 G4 |A12 ||
